X: 50
T:Maid behind the bar
R:Reel
M:4/4
L:1/8
K:D
F | A2 AB AFED | FAAB A2 de| fBBA Bcde | f2gf e2 dB| FAAB AFED | FAAB A2
 de| fBBA BcdB AFEF D3 :|
g | fgab afde | fdad fddf|edga beef|gebe geeg|fgae bfaf |defd efde|fBBA
BcdB|AFEF D3:|
